X:157
U: ~ = !turn!
%%topmargin 3cm
T:Paddy Cronin Reel #4
T:In C
B:Traditional Irish Fiddle Tunes. Randy Miller and Jack Perron.
Z:Transcribed by Ralph Palmer
S:Paddy Cronin
R:Reel
L:1/8
M:C|
K:C
~C3 D DG ~G2 | cded cAAc | AcGc Aa ~a2 | gecd ed ~d2 |
CB,CD EG ~G2 | cded cAAc | ((3ABc) Gc Aa ~a2 | gedg ec ~c2 ::
~g3 a gedc | fedc ec ~c2 | AcGc Aa ~a2 | gecd ed ~d2 |
g3 a gedc | fedc ec ~c2 | AcGc Aa ~a2 | gedg ec ~c2 :|]
